build/system/EmailReadSolid.svg

<svg xmlns="http://www.w3.org/2000/svg" fill="none" viewBox="0 0 24 24" focusable="false"><path d="M0 0H24V24H0z"/><path fill="#74767B" fill-rule="evenodd" d="M14.1008 4.19887C15.8145 5.47061 17.673 6.66059 19.3316 8.02293C19.6741 8.30427 19.6533 8.82869 19.299 9.09495L13.5618 13.4056C12.6366 14.1007 11.3634 14.1007 10.4382 13.4056L10.0506 13.1143C10.0233 13.09 9.99435 13.0683 9.96404 13.0493L4.69881 9.09329C4.34445 8.82705 4.32369 8.30266 4.66503 8.01992C6.27669 6.68493 8.05581 5.49521 9.71069 4.22889C11.0038 3.24158 12.7943 3.22934 14.1008 4.19887ZM3 10.8271C3 10.1987 3.73026 9.99162 4.23265 10.3691L8.535 13.6017L5.99085 15.5159C5.704 15.7317 5.64642 16.1392 5.86225 16.4261C6.07808 16.7129 6.48559 16.7705 6.77245 16.5547L9.61688 14.4145L9.6573 14.4449C11.0451 15.4876 12.9549 15.4876 14.3427 14.4449L14.3831 14.4145L17.2276 16.5547C17.5144 16.7705 17.9219 16.7129 18.1378 16.4261C18.3536 16.1392 18.296 15.7317 18.0091 15.5159L15.465 13.6016L19.7666 10.3696C20.2691 9.99206 21 10.1985 21 10.8271L21 17.4951C21 19.1551 19.66 20.4951 18 20.4951L6 20.4951C4.34 20.4951 3 19.1551 3 17.4951L3 10.8271Z"/></svg>

<svg xmlns="http://www.w3.org/2000/svg" fill="none" viewBox="0 0 24 24" focusable="false"><path fill="#74767B" fill-rule="evenodd" d="M19.33 8.02c-1.66-1.36-3.52-2.55-5.23-3.83a3.66 3.66 0 0 0-4.39.03C8.05 5.49 6.27 6.68 4.66 8.01c-.34.29-.32.81.03 1.08l5.27 3.95c.03.02.06.05.09.07l.38.29c.93.7 2.2.7 3.13 0l5.73-4.31c.36-.27.38-.79.04-1.07M3 10.82c0-.63.73-.83 1.23-.46l4.3 3.24-2.54 1.91c-.29.22-.35.62-.13.91.21.29.62.35.91.13l2.84-2.14.04.03a3.915 3.915 0 0 0 4.69 0l.04-.03 2.84 2.14c.29.22.7.16.91-.13.22-.29.16-.69-.13-.91l-2.54-1.91 4.3-3.24c.5-.37 1.24-.17 1.24.46v6.67c0 1.66-1.34 3-3 3H6c-1.67 0-3-1.34-3-3z"/></svg>
